build/svg/cmd/lc_dataconsolidate.svg

<?xml version="1.0" encoding="UTF-8" standalone="no"?>
<svg
   xmlns:dc="http://purl.org/dc/elements/1.1/"
   xmlns:cc="http://creativecommons.org/ns#"
   xmlns:rdf="http://www.w3.org/1999/02/22-rdf-syntax-ns#"
   xmlns:svg="http://www.w3.org/2000/svg"
   xmlns="http://www.w3.org/2000/svg"
   xmlns:sodipodi="http://sodipodi.sourceforge.net/DTD/sodipodi-0.dtd"
   xmlns:inkscape="http://www.inkscape.org/namespaces/inkscape"
   viewBox="0 0 24 24"
   version="1.1"
   id="svg6"
   sodipodi:docname="lc_dataconsolidate.svg"
   inkscape:export-filename="/home/jupiter007/Libreoffice yaru theme fullcolor/build/cmd/lc_dataconsolidate.png"
   inkscape:export-xdpi="96"
   inkscape:export-ydpi="96"
   inkscape:version="0.92.5 (2060ec1f9f, 2020-04-08)">
  <metadata
     id="metadata12">
    <rdf:RDF>
      <cc:Work
         rdf:about="">
        <dc:format>image/svg+xml</dc:format>
        <dc:type
           rdf:resource="http://purl.org/dc/dcmitype/StillImage" />
      </cc:Work>
    </rdf:RDF>
  </metadata>
  <defs
     id="defs10" />
  <sodipodi:namedview
     pagecolor="#ffffff"
     bordercolor="#666666"
     borderopacity="1"
     objecttolerance="10"
     gridtolerance="10"
     guidetolerance="10"
     inkscape:pageopacity="0"
     inkscape:pageshadow="2"
     inkscape:window-width="1920"
     inkscape:window-height="1011"
     id="namedview8"
     showgrid="true"
     inkscape:zoom="27.812867"
     inkscape:cx="9.5771774"
     inkscape:cy="11.128789"
     inkscape:window-x="1920"
     inkscape:window-y="32"
     inkscape:window-maximized="1"
     inkscape:current-layer="svg6">
    <inkscape:grid
       type="xygrid"
       id="grid842" />
  </sodipodi:namedview>
  <path
     d="m 18.999999,3.9999995 v 2 2 h -2 v -2 h -6.000002 v -2 z m 0,11.9999995 v 2 0.09375 1.90625 h -8.000001 v -2 h 6.000001 v -2 z"
     id="path2"
     inkscape:connector-curvature="0"
     style="fill:#6d6d6d;fill-opacity:1"
     sodipodi:nodetypes="ccccccccccccccccc" />
  <rect
     style="opacity:1;fill:#ffffff;fill-opacity:1;fill-rule:evenodd;stroke:none;stroke-width:2;stroke-linecap:butt;stroke-linejoin:round;stroke-miterlimit:4;stroke-dasharray:none;stroke-opacity:1"
     id="rect845"
     width="4"
     height="2"
     x="-8"
     y="11"
     ry="0"
     transform="scale(-1,1)" />
  <rect
     ry="0"
     y="17"
     x="-8"
     height="2"
     width="4"
     id="rect849"
     style="opacity:1;fill:#ffffff;fill-opacity:1;fill-rule:evenodd;stroke:none;stroke-width:2;stroke-linecap:butt;stroke-linejoin:round;stroke-miterlimit:4;stroke-dasharray:none;stroke-opacity:1"
     transform="scale(-1,1)" />
  <path
     style="fill:#232629;fill-opacity:1"
     d="m 8.9999987,3.9999995 v 4.093751 h -6 v -4.093751 z m -1,1 h -4 v 2 h 4 z"
     id="path827"
     inkscape:connector-curvature="0" />
  <path
     style="fill:#232629;fill-opacity:1"
     d="m 8.9999987,16 v 4.09375 h -6 V 16 Z m -1,1 h -4 v 2 h 4 z"
     id="path823"
     inkscape:connector-curvature="0" />
  <path
     d="M 8.9999987,9.9999995 V 14.09375 h -6 V 9.9999995 Z m -1,0.9999995 h -4 V 13 h 4 z"
     id="path4-8"
     inkscape:connector-curvature="0"
     style="fill:#232629"
     sodipodi:nodetypes="cccccccccc" />
  <rect
     ry="0"
     y="5"
     x="-8"
     height="2"
     width="4"
     id="rect841"
     style="opacity:1;fill:#ffffff;fill-opacity:1;fill-rule:evenodd;stroke:none;stroke-width:2;stroke-linecap:butt;stroke-linejoin:round;stroke-miterlimit:4;stroke-dasharray:none;stroke-opacity:1"
     transform="scale(-1,1)" />
  <rect
     transform="scale(-1,1)"
     ry="0"
     y="11.000001"
     x="-20.000002"
     height="2"
     width="4"
     id="rect854"
     style="opacity:1;fill:#ffffff;fill-opacity:1;fill-rule:evenodd;stroke:none;stroke-width:2;stroke-linecap:butt;stroke-linejoin:round;stroke-miterlimit:4;stroke-dasharray:none;stroke-opacity:1" />
  <path
     sodipodi:nodetypes="cccccccccc"
     style="fill:#c7162b;fill-opacity:1"
     inkscape:connector-curvature="0"
     id="path856"
     d="m 21,10.000001 v 4.09375 h -6 v -4.09375 z M 20,11 h -4 v 2.000001 h 4 z" />
</svg>

<svg xmlns="http://www.w3.org/2000/svg" viewBox="0 0 24 24"><path d="M19 4v4h-2V6h-6V4zm0 12v4h-8v-2h6v-2z" fill="#6d6d6d"/><rect width="4" height="2" x="-8" y="11" ry="0" transform="scale(-1 1)" fill="#fff" fill-rule="evenodd"/><rect ry="0" y="17" x="-8" height="2" width="4" transform="scale(-1 1)" fill="#fff" fill-rule="evenodd"/><path d="M9 4v4.094H3V4zM8 5H4v2h4zM9 16v4.094H3V16zm-1 1H4v2h4zM9 10v4.094H3V10zm-1 1H4v2h4z" fill="#232629"/><rect ry="0" y="5" x="-8" height="2" width="4" transform="scale(-1 1)" fill="#fff" fill-rule="evenodd"/><rect transform="scale(-1 1)" ry="0" y="11" x="-20" height="2" width="4" fill="#fff" fill-rule="evenodd"/><path d="M21 10v4.094h-6V10zm-1 1h-4v2h4z" fill="#c7162b"/></svg>
